X: 14737
T: Gan Ainm
R: polka
M: 2/4
K: Gmajor
|:B/c/|dB Gd|dc Af|gg/g/ gb|a3 d|
ba gf|ef ge|dB cA|B2 B z:|
|:G|FG dc|Bd gf|ee fc|d2 d2|
ba gf|ef ge|dB cA|B2 B z:|

